X:1
T:The Well-Tempered Clavier Part II Praeludium VI
T:BWV 875
T:J. S. Bach
%%score { ( 1 3 ) | 2 }
L:1/8
Q:1/4=132
M:3/4
K:F
V:1 treble nm="Harp"
V:3 treble 
V:2 bass 
V:1
"^Allegro" dc/B/ A/G/F/E/ D/F/E/D/ | B/G/D/G/ B/G/D/G/ B/G/D/G/ | A/G/D/G/ A/F/D/F/ A/F/D/F/ | %3
 G/E/D/E/ G/E/^C/E/ G/E/C/E/ | F2 z2 z2 | z D GB d/4^c/4d3/2 | z D FA d/4^c/4d3/2 | z G ^ce cA | %8
 dc/B/ A/G/F/E/ FA- | A/G/A/=B/ c/d/e/f/ g/f/e/d/ | e/c/B/A/ G/F/E/D/ EG- | %11
 G/F/G/A/ B/c/d/_e/ f/e/d/c/ | d/f/d/c/ B/d/B/A/ G/B/G/F/ | Ee/f/ gb eg | %14
 ^c/g/c/=B/ A/e/A/G/ F/c/F/E/ | Dd/e/ fa d^B | B/g/B/A/ G/B/G/F/ _E/B/E/D/ | %17
 ^C/A/C/=B,/ C/A/C/A/ C/A/C/A/ | ^C/A/C/=B,/ C/A/C/A/ C/A/C/A/ | D/A/D/^C/ D/A/D/A/ D/A/D/A/ | %20
 E/A/E/D/ E/A/E/A/ E/A/E/A/ | F/4A/4=B/4^c/4d/A/ F/A/d/A/ F/A/d/A/ | ^F/d/F/E/ F/d/F/d/ F/d/F/d/ | %23
 G/4A/4=B/4c/4d/B/ G/B/d/B/ G/B/d/B/ | ^G/d/G/^F/ G/d/G/d/ G/d/G/d/ | c2 z2 z2 | %26
 z A df a/4^g/4a3/2 | z A ce a/4^g/4a3/2 | z d ^g=b ge | ag/f/ e/d/c/=B/ A/c/B/A/ | %30
 f/d/A/d/ f/d/A/d/ f/d/A/d/ | e/d/A/d/ e/c/A/c/ e/c/A/c/ | d/=B/A/B/ d/B/^G/B/ d/B/G/B/ | c6- | %34
 c/_e/d/c/ ^f/e/d/c/ a/e/d/c/ | B/g/f/_e/ d/c/B/A/ c/B/A/G/ | ce =Bf _Bg- | %37
 g/d/c/B/ A/g/f/e/ d/f/e/d/ | ^c/B/A/G/ d/B/A/G/ e/B/A/G/ | F^F GA ^A=B | c^c de f^f | %41
 g/d/b/a/ g/f/e/d/ ^c/d/e/c/ | AE A^c e/4d/4e3/2- | e/A/F/A/ d/A/F/A/ d/4^c/4d3/2- | %44
 d/G/E/G/ c/G/E/G/ c/4=B/4c3/2- | c/F/D/F/ B/F/D/F/ B/G/E/G/ | ^C/A/B/A/ C/A/B/A/ CE- | %47
 E/A/B/A/ D/A/B/A/ DF- | F/G/A/G/ E/G/A/G/ A,G- | G/B,/A,/G,/ A,/E/D/^C/ D/G/F/E/ | %50
 F/B,/C/D/ _E/A,/B,/C/ D/B,/C/D/ | _E/A,/B,/C/ D/B,/C/D/ C/[I:staff +1]^F,/G,/A,/ | %52
[I:staff -1] B,/ z/ z z/ A,/B,/C/ D/B,/G/D/ | B/G/F/_E/ D/ z/ z z2 | %54
 z/ B/A/G/ e/d/^c/=B/ A/G/F/E/ | F/D/G/D/ A/D/B/D/ z/ D/E/^C/ | %56
 D/C/^F,/C/ D/C/[I:staff +1]F,/[I:staff -1]C/ D/C/[I:staff +1]F,/[I:staff -1]C/ | %57
[I:staff +1] B,/D/^A,/^F,/ A,/D/A,/F,/ A,/D/B,/E,/ | F,/D/F,/D/ F,/D/F,/D/ F,/D/F,/D/ | %59
 G,/^C/G,/E,/ G,/C/G,/E,/ G,/C/G,/E,/ | !fermata![^F,D]6 |] %61
V:2
 D,/4^C,/4D,3/2 D,,2 z2 | z D,, G,,B,, D,/4^C,/4D,3/2 | z D,, F,,A,, D,/4^C,/4D,3/2 | %3
 z B, E,G, ^C,A, | D,2 z/ G,/F,/E,/ D,/F,/E,/D,/ | B,/G,/D,/G,/ B,/G,/D,/G,/ B,/G,/D,/G,/ | %6
 A,/G,/D,/G,/ A,/F,/D,/F,/ A,/F,/D,/F,/ | G,/E,/D,/E,/ G,/E,/^C,/E,/ G,/E,/C,/E,/ | %8
 F,/D,/E,/F,/ G,/A,/=B,/^C/ D/=C/B,/A,/ | =B,/C/B,/A,/ G,/F,/E,/D,/ E,G, | %10
 C,D,/E,/ F,/G,/A,/B,/ C/B,/A,/G,/ | A,/B,/A,/G,/ F,/_E,/D,/C,/ D,F, | B,,B,/C/ DF B,D | %13
 G,/B,/G,/F,/ E,/G,/E,/D,/ ^C,/E,/C,/=B,,/ | A,,A,/=B,/ ^CE A,G, | %15
 F,/D/F,/E,/ D,/A,/D,/C,/ B,,/F,/B,,/A,,/ | G,,G,/A,/ B,D G,B, | A,E A,E A,E | G,E G,E G,E | %19
 F,F F,F F,F |[K:treble] ^CG CG CG | DF DF DF | CA CA CA | =B,G B,G B,G | E=B EB EB | %25
[K:bass] A,2 z/ D/C/=B,/ A,/C/B,/A,/ | F/D/A,/D/ F/D/A,/D/ F/D/A,/D/ | %27
 E/D/A,/D/ E/C/A,/C/ E/C/A,/C/ | D/=B,/A,/B,/ D/B,/^G,/B,/ D/B,/G,/B,/ | CA,, C,E, A,C | %30
 DF A,D D,=B, | CE A,C C,A, | =B,D ^G,B, EE, | %33
 A,/[I:staff -1]A/G/F/ E/[I:staff +1]D/C/=B,/ A,/C/E,/G,/ | ^F,[I:staff -1]A cA ^FD | %35
 G[I:staff +1]G, B,[I:staff -1]D GF | E/_D/C/B,/ F/D/C/B,/ G/D/C/B,/ | %37
 A,/F/E/D/[I:staff +1] C/B,/A,/G,/ B,/A,/G,/F,/ | E,/[I:staff -1]G/F/E/ D/G/F/E/ ^C/G/F/E/ | %39
[I:staff +1] D/_E/D/C/ B,/C/B,/A,/ G,/A,/G,/F,/ | E,/B,/A,/G,/ F,/G,/F,/E,/ D,/_E,/D,/C,/ | %41
 B,,G,, B,,D, G,2- | G,/G,/A,,/G,,/ A,,/G,/A,,/G,/ A,,/G,/A,,/G,/ | %43
 A,,/F,/A,,/G,,/ A,,/F,/A,,/F,/ A,,/F,/A,,/F,/ | A,,/E,/A,,/G,,/ A,,/E,/A,,/E,/ A,,/E,/A,,/E,/ | %45
 A,,/D,/F,/D,/ A,,/D,/F,/A,/ G,,/E,/G,/B,/ | G,^C, E,G,, z/ B,,/A,,/G,,/ | %47
 F,,/F,/E,/F,/ F,,/F,/E,/F,/ F,,/F,/E,/D,/ | ^C,E,, G,,^C,, z/ C,/=B,,/A,,/ | %49
 D,D,, F,,A,, D,/4^C,/4D,3/2- | D,/G,/A,/B,/ C,/^F,/G,/A,/ B,,/G,/A,/B,/ | %51
 C,/^F,/G,/A,/ B,,/G,/A,/B,/ A,,/D,/E,/F,/ | G,,/D,/E,/^F,/ G,/ z/ z z2 | %53
 z2 z/ C/B,/A,/ G,/B,/E,/G,/ | ^C,2 z A,, =B,,C, | D,E, F,G, A,A,, | D,A, D,A, D,A, | %57
 D,G, D,G, D,G, | D,A, D,A, D,A, | D,B, D,B, D,B, | !fermata![D,A,]6 |] %61
V:3
 x6 | x6 | x6 | x6 | z/ D/C/B,/ A,/ z/ z z2 | x6 | x6 | x6 | x6 | x6 | x6 | x6 | x6 | x6 | x6 | %15
 x6 | x6 | x6 | x6 | x6 | x6 | x6 | x6 | x6 | x6 | z/ A/G/F/ E/ z/ z z2 | x6 | x6 | x6 | x6 | x6 | %31
 x6 | x6 | x6 | x6 | x6 | x6 | x6 | x6 | x6 | x6 | x6 | x6 | x6 | x6 | x6 | x6 | x6 | x6 | x6 | %50
 x6 | x6 | x6 | x6 | x6 | x6 | x6 | x6 | x6 | x6 | x6 |] %61

